src/components/ListingCard/images/noImageIcon.svg

<svg height="49" viewBox="0 -1 48 49" width="48" xmlns="http://www.w3.org/2000/svg" xmlns:xlink="http://www.w3.org/1999/xlink"><mask id="a" fill="#fff"><path d="m0 47.2h48v-47.2h-48z" fill="#fff" fill-rule="evenodd"/></mask><g fill="none" fill-rule="evenodd"><g stroke="#525961" stroke-width="2"><path d="m13.6 9.6 10.4-8.8 10.4 8.8z" stroke-linejoin="round"/><path d="m.8 46.4h46.4v-36.8h-46.4z" mask="url(#a)"/><path d="m5.6 41.6h36.8v-27.2h-36.8z" mask="url(#a)"/><path d="m19.998 31.636.835-.835a4.035 4.035 0 0 1 2.853-1.183h.693c1.07 0 2.097.426 2.853 1.183l.835.835" mask="url(#a)" stroke-linecap="round" stroke-linejoin="round"/></g><path d="m21.599 23.983a1.009 1.009 0 1 0 0 2.018 1.009 1.009 0 0 0 0-2.018m4.803 0a1.009 1.009 0 1 0 0 2.018 1.009 1.009 0 0 0 0-2.018" fill="#525961" mask="url(#a)"/></g></svg>

<svg width="48" height="49" viewBox="0 -1 48 49" xmlns="http://www.w3.org/2000/svg" xmlns:xlink="http://www.w3.org/1999/xlink"><defs><path id="a" d="M0 47.2h48V0H0z"/></defs><g fill="none" fill-rule="evenodd"><path stroke="#525961" stroke-width="2" stroke-linejoin="round" d="M13.6 9.6L24 .8l10.4 8.8z"/><mask id="b" fill="#fff"><use xlink:href="#a"/></mask><path stroke="#525961" stroke-width="2" mask="url(#b)" d="M.8 46.4h46.4V9.6H.8z"/><path stroke="#525961" stroke-width="2" mask="url(#b)" d="M5.6 41.6h36.8V14.4H5.6z"/><path d="M19.998 31.636l.835-.835a4.035 4.035 0 0 1 2.853-1.183h.693c1.07 0 2.097.426 2.853 1.183l.835.835" stroke="#525961" stroke-width="2" stroke-linecap="round" stroke-linejoin="round" mask="url(#b)"/><path d="M21.599 23.983a1.009 1.009 0 1 0 0 2.018 1.009 1.009 0 0 0 0-2.018M26.402 23.983a1.009 1.009 0 1 0 0 2.018 1.009 1.009 0 0 0 0-2.018" fill="#525961" mask="url(#b)"/></g></svg>
